usr/share/icons/biglinux-icons-material/22/actions/download-later.svg

<svg xmlns="http://www.w3.org/2000/svg" viewBox="0 0 22 22">
  <defs id="defs3051">
    <style type="text/css" id="current-color-scheme">
      .ColorScheme-Text {
        color:#dedede;
      }
      </style>
  </defs>
 <path 
    style="fill:currentColor;fill-opacity:1;stroke:none" 
    d="M 11 3 C 6.5680018 3 3 6.568 3 11 C 3 15.092537 6.0443284 18.441581 10 18.931641 L 10 17.921875 C 6.6006429 17.438059 4 14.537216 4 11 C 4 10.757625 4.0113433 10.519094 4.0351562 10.283203 C 4.3923512 6.7448366 7.3643762 4 11 4 C 14.877999 4 18 7.122 18 11 C 18 11.340784 17.968487 11.672498 17.921875 12 L 18.931641 12 C 18.97229 11.67189 19 11.339463 19 11 C 19 6.568 15.431998 3 11 3 z M 10 5 L 10 12 L 16 12 L 16 11 L 11 11 L 11 5 L 10 5 z M 16 13 L 16 17.292969 L 13.707031 15 L 13 15.707031 L 16.292969 19 L 16.5 19.207031 L 16.707031 19 L 20 15.707031 L 19.292969 15 L 17 17.292969 L 17 13 L 16 13 z "
    class="ColorScheme-Text"
    />  
</svg>

<svg xmlns="http://www.w3.org/2000/svg" viewBox="0 0 22 22"><path d="M11 3c-4.432 0-8 3.568-8 8a7.976 7.976 0 0 0 7 7.932v-1.01C6.6 17.438 4 14.537 4 11a6.985 6.985 0 0 1 7-7c3.878 0 7 3.122 7 7 0 .34-.032.672-.078 1h1.01c.04-.328.068-.66.068-1 0-4.432-3.568-8-8-8zm-1 2v7h6v-1h-5V5h-1zm6 8v4.293L13.707 15l-.707.707L16.293 19l.207.207.207-.207L20 15.707 19.293 15 17 17.293V13h-1z" style="fill:currentColor;fill-opacity:1;stroke:none;color:#dedede"/></svg>
